context/brand-context/default/img/icons/social-facebook.svg

<svg id="i-social-facebook" viewBox="0 0 24 24" xmlns="http://www.w3.org/2000/svg"><path d="m6.00368507 20c-1.10660471 0-2.00368507-.8945138-2.00368507-1.9940603v-12.01187942c0-1.10128908.89451376-1.99406028 1.99406028-1.99406028h12.01187942c1.1012891 0 1.9940603.89451376 1.9940603 1.99406028v12.01187942c0 1.1012891-.88679 1.9940603-2.0032184 1.9940603h-2.9570132v-6.1960818h2.0797387l.3114113-2.414723h-2.39115v-1.54164807c0-.69911803.1941355-1.1755439 1.1966615-1.1755439l1.2786739-.00055875v-2.15974763l-.2339477-.02492088c-.3441234-.03134957-.9500153-.07025255-1.6293054-.07025255-1.8435726 0-3.1057323 1.12531866-3.1057323 3.19187953v1.78079225h-2.0850778v2.414723h2.0850778v6.1960818z" fill="currentColor" fill-rule="evenodd"/></svg>

<svg id="i-social-facebook" viewBox="0 0 24 24" xmlns="http://www.w3.org/2000/svg"><path d="M6.004 20A2 2 0 0 1 4 18.006V5.994C4 4.893 4.895 4 5.994 4h12.012C19.107 4 20 4.895 20 5.994v12.012A1.992 1.992 0 0 1 17.997 20H15.04v-6.196h2.08l.31-2.415h-2.39V9.848c0-.7.194-1.176 1.196-1.176h1.28v-2.16l-.235-.025c-.344-.032-.95-.07-1.63-.07-1.843 0-3.105 1.125-3.105 3.191v1.781h-2.085v2.415h2.085V20z" fill="currentColor" fill-rule="evenodd"/></svg>
